X:1
T:Qui est celuy qui a dit
T:Adriaan Willaert
T:Source : Trium vocum cantiones---Nürnberg---J.Petreius---1541. Editor : André Vierendeels (03/09/15).
T:Notes : Original clefs : C3, C4, C4 Editorial accidentals above the staff Original note values have been halved Square brackets indicate ligatures
T:#
T:Qui est celuy qui a dit
C:Adrian Willaert
%%score [ 1 2 3 ]
L:1/8
Q:1/4=80
M:2/2
K:F
V:1 treble-8 nm="Tenor 1" snm="T 1"
V:2 treble-8 nm="Tenor 2" snm="T 2"
V:3 treble-8 nm="Tenor 3" snm="T 3"
V:1
 z8 | G4 A2 B2 | c3 B/A/ G2 g2 | f2 g2 agfe | d2 g4 f2 | g4 z4 | z2 G2 A2 B2 | c3 B/A/ G2 c2 | %8
w: |Qui est ce-|luy _ _ _ qui|a dit mal _ _ _|_ _ du|con,|qui a dit|mal _ _ _ du|
 B3 A G2 A2 | G2 g4 f2 | g2 G2 B3 c | d2 d2 G4 | z2 c2 c2 c2 | B2 f2 f2 f2 | e4 z2 f2 | %15
w: con, _ _ il|nest pas gen-|tilz hom', qui _|en dit mal,|le bien en|vient, le bien en|vient, le|
 g2 a2 d2 g2 | f2 ed e4 | d4 z2 f2 | e3 d/c/ d4 | c4 z2 c2 | B3 A/G/ A2 B2 | G2 A3 G e2 | %22
w: sou- las et la|ioy- * * *|e, à|deux _ _ ge-|noulx, à|deux _ _ _ ge-|noulx on luy bail-|
 d2 cB c2 d2- | dc c2 d2 d2 | cBAG A4 | z2 G2 B3 c | d2 c3 def | g2 f3 g a2- | a2 gf e2 a2- | %29
w: le _ _ sa proy-||* * * * e,|à deux ge-|noulx on _ _ _|luy bail- * *|* * * le sa|
"^#" ag g4 f2 | g4 z2 g2 | e2 e2 fedc | B3 c de f2 | fgaf g2 a2- | ag g4 f2 | g8 |] %36
w: _ _ _ proy-|e, on|luy bail- le _ _ _|sa- * * * *||* * * proy-|e.|
V:2
 z8 | d8 | e6 e2 | d6 c2 | B2 B2 A2 A2 | G8 | d8 | e6 e2 | d6 c2 | B2 B2 A2 A2 | G8 | B4 B2 B2 | %12
w: |Qui|est ce-|luy qui|a dit mal du|con,|qui|en dit|mal, il|nest pas gen- tilz|hom',|le bien en|
 A4 A4 | d4 d4 | A4 d4 | c2 BA B4 | A4 z4 | F8 | G6 G2 | A6 A2 | d4 d4 | c4 c4 | G4 A4 | G4 z4 | %24
w: vient, le|sou- las|et la|ioy- * * *|e,|à|deux ge-|noulx on|luy bail-|le sa|proy- *|e,|
 F8 | G6 G2 | A4 A4 | d4 d4 | c4 c4 | G4 A4 | z2 G2 G2 G2 | A6 A2 | d4 d4 | c6 c2 | G4 A4 | G8 |] %36
w: à|deux ge-|noulx on|luy bail-|le sa|proye _|à deux ge-|noulx on|luy bail-|le sa|proy- *|e.|
V:3
 D4 E2 F2 | G3 F/E/ D4 | C8 | z2 G2 F2 F2 | G2 G2 D4 | z2 C2 E3 F | G3 F/E/ D4 | C8 | z2 D2 E2 F2 | %9
w: Qui est ce-|luy _ _ _|_|qui a dit|mal du con,|qui a dit|mal _ _ du|con,|il n'est pas|
 G2 G2 D2 A2 | B3 c d2 d2 | G2 d2 d2 d2 | c2 F3 GAF | G2 B3 cdB | c2 c2 B4 | z2 F2 G2 G2 | %16
w: gen- tilz hom', il|nest pas gen- tilz|hom', le bien en|vient, le bien _ _|_ _ _ _ _|* en vient,|le sou- las|
 D2 F2 G2 A2 | DEFG AB c2 | B3 A B4 | F8 | z2 G2 F2 ED | E2 F2 C4 | z2 G2 F2 ED | E4 D4 | %24
w: et la ioy- e,|le _ _ _ sou- * las|et la joy-|e,|à deux _ _|_ ge- noulx,|à deux _ _|ge- noulx,|
 z2 D2 D2 D2 | E3 F G2 E2 | DEFG AB c2 | G2 B4 F2- | FG A4 GF |"^#" E4 D4 | z2 d2 d2 B2 | cBAG F4 | %32
w: on luy bail-|le sa proy- *||* e, sa|_ _ _ _ _|proy- e,|à deux ge-|noulx _ _ _ _|
 G2 G2 D2 D2 | F3 E/D/ C2 F2 | E4 D4 | G8 |] %36
w: on luy bail- le|sa _ _ _ _|proy- *|e.|

